packages/bezier-icons/icons/android.svg

<svg width="24" height="24" viewBox="0 0 24 24" fill="none" xmlns="http://www.w3.org/2000/svg">
<path fill-rule="evenodd" clip-rule="evenodd" d="M13.8 5.49998H14.7V4.59998H13.8V5.49998ZM9.29999 5.49998H10.2V4.59998H9.29999V5.49998ZM15.177 2.944L16.347 1.774C16.527 1.594 16.527 1.315 16.347 1.135C16.167 0.955 15.888 0.955 15.708 1.135L14.376 2.467C13.665 2.107 12.855 1.9 12 1.9C11.136 1.9 10.326 2.107 9.606 2.467L8.265 1.135C8.085 0.955 7.806 0.955 7.626 1.135C7.446 1.315 7.446 1.594 7.626 1.774L8.805 2.953C7.473 3.934 6.6 5.509 6.6 7.3H17.4C17.4 5.509 16.527 3.925 15.177 2.944ZM19.65 8.20001C18.903 8.20001 18.3 8.80301 18.3 9.55001V15.85C18.3 16.597 18.903 17.2 19.65 17.2C20.397 17.2 21 16.597 21 15.85V9.55001C21 8.80301 20.397 8.20001 19.65 8.20001ZM4.35 8.20001C3.603 8.20001 3 8.80301 3 9.55001V15.85C3 16.597 3.603 17.2 4.35 17.2C5.097 17.2 5.7 16.597 5.7 15.85V9.55001C5.7 8.80301 5.097 8.20001 4.35 8.20001ZM6.60001 17.2C6.60001 17.695 7.00501 18.1 7.50001 18.1H8.40001V21.25C8.40001 21.997 9.00301 22.6 9.75001 22.6C10.497 22.6 11.1 21.997 11.1 21.25V18.1H12.9V21.25C12.9 21.997 13.503 22.6 14.25 22.6C14.997 22.6 15.6 21.997 15.6 21.25V18.1H16.5C16.995 18.1 17.4 17.695 17.4 17.2V8.20001H6.60001V17.2Z" fill="#313234"/>
</svg>

<svg xmlns="http://www.w3.org/2000/svg" width="24" height="24" fill="none" viewBox="0 0 24 24"><path fill="#313234" fill-rule="evenodd" d="M13.8 5.5h.9v-.9h-.9zm-4.5 0h.9v-.9h-.9zm5.877-2.556 1.17-1.17a.446.446 0 0 0 0-.639.446.446 0 0 0-.639 0l-1.332 1.332A5.26 5.26 0 0 0 12 1.9c-.864 0-1.674.207-2.394.567L8.265 1.135a.446.446 0 0 0-.639 0 .446.446 0 0 0 0 .639l1.179 1.179A5.39 5.39 0 0 0 6.6 7.3h10.8a5.37 5.37 0 0 0-2.223-4.356M19.65 8.2c-.747 0-1.35.603-1.35 1.35v6.3c0 .747.603 1.35 1.35 1.35S21 16.597 21 15.85v-6.3c0-.747-.603-1.35-1.35-1.35m-15.3 0C3.603 8.2 3 8.803 3 9.55v6.3c0 .747.603 1.35 1.35 1.35s1.35-.603 1.35-1.35v-6.3c0-.747-.603-1.35-1.35-1.35m2.25 9c0 .495.405.9.9.9h.9v3.15c0 .747.603 1.35 1.35 1.35s1.35-.603 1.35-1.35V18.1h1.8v3.15c0 .747.603 1.35 1.35 1.35s1.35-.603 1.35-1.35V18.1h.9c.495 0 .9-.405.9-.9v-9H6.6z" clip-rule="evenodd"/></svg>
